src/main/resources/icons/AopCommonIcons/icons/after_throwing_advice.svg

<svg xmlns="http://www.w3.org/2000/svg" width="16" height="16" viewBox="0 0 16 16">
  <g fill="none" fill-rule="evenodd">
    <path fill="#F98B9E" fill-opacity=".6" d="M12.934128,7.1863378 L8.05614529,12.9996913 C8.03745463,12.9998969 8.01873935,13 8,13 C5.23857143,13 3,10.7614286 3,8 C3,5.23857143 5.23857143,3 8,3 C10.4843668,3 12.5455324,4.81190221 12.934128,7.1863378 Z"/>
    <path fill="#231F20" fill-opacity=".7" d="M11.9927137,8.30827169 L11.0046997,9.48574095 C11.0046997,9.11004244 11.0046997,8.61479545 11.0046997,8 C11.0041373,7.73961181 11.0041373,7 9.98162842,7 C8.95911952,7 9,7.686 9,8 L9,11.0003 L8,11.0003 L8,8 C7.999,7.537 7.95,7 7,7 C6.05,7 6.05,7.7657 6,8 C5.96666667,8.1562 5.96666667,9.1563 6,11.0003 L5,11.0003 L5,6.0003 L6,6.0003 L6,6.299231 C6.26527507,6.09994367 6.63194173,6.0003 7.1,6.0003 C7.94411621,6.0003 8.28363037,6.19411621 8.5986,6.6 C8.6576,6.502 9.11224365,6.0003 9.98162842,6.0003 C11.6351318,6.0003 11.9912,7.251 11.9922,8 L11.9927137,8.30827169 Z"/>
    <path fill="#9AA7B0" fill-opacity=".8" d="M10,14.7101213 C9.36629059,14.8987225 8.69497261,15 8,15 C4.13400675,15 1,11.8659932 1,8 C1,7.66047866 1.02417196,7.32660298 1.07088886,7 L2.08295844,7 C2.0283988,7.32520847 2,7.65928779 2,8 C2,11.3137085 4.6862915,14 8,14 C8.70127085,14 9.37444215,13.8796916 10,13.6585886 L10,14.7101213 Z M14.9291111,7 L13.9170416,7 L14.9291111,7 Z"/>
    <polygon fill="#231F20" fill-opacity=".7" points="12 16 13.6 12.8 9.6 12.8 13.6 8 12.8 11.2 16 11.2"/>
  </g>
</svg>

<svg xmlns="http://www.w3.org/2000/svg" width="16" height="16" viewBox="0 0 16 16"><rect id="frame" width="16" height="16" fill="none"/><g fill="none" fill-rule="evenodd"><path fill="#F98B9E" fill-opacity=".6" d="M12.934 7.186L8.056 13H8a5 5 0 1 1 4.934-5.814z"/><path fill="#231F20" fill-opacity=".7" d="M11.993 8.308l-.988 1.178V8c0-.26 0-1-1.023-1S9 7.686 9 8v3H8V8c-.001-.463-.05-1-1-1s-.95.766-1 1c-.033.156-.033 1.156 0 3H5V6h1v.3c.265-.2.632-.3 1.1-.3.844 0 1.184.194 1.499.6.059-.098.513-.6 1.383-.6 1.653 0 2.01 1.251 2.01 2v.308z"/><path fill="#9AA7B0" fill-opacity=".8" d="M10 14.71A7 7 0 0 1 1.07 7h1.013A6 6 0 0 0 10 13.659v1.051zM14.93 7h-1.013 1.012z"/><path fill="#231F20" fill-opacity=".7" d="M12 16l1.6-3.2h-4l4-4.8-.8 3.2H16z"/></g></svg>
